X: 5233
T: Broken Doll, The
R: reel
M: 4/4
K: Gmajor
|:BD D2 EGBc-|ce e2 gfde-|e2dc dGFE-|EcBA- ADGA|
BD D2 EGBc-|ce e2 gfde-|e2dc dGFE-|EcBA- ADGA|
BD D2 EGBc-|cEED DEEG|DEGD EGed|dcBA- ADGA|
BD D2 EGBc-|ce e2 gfde-|e2dc dGFE-|EcBA- ADFA||
|:GEEG cEBA-|ADFA dAcB-|BEGB eGcG|ADFA cdBG-|
GEEG cEBA-|ADFA dAcB|e2dc dGFE-|1 EcBA- ADFA:|2 EcBA- ADGA||

